X: 10611
T: WHIPPLE'S HORNPIPE
C:
%R: hornpipe, reel
B: Elias Howe "The Musician's Companion" Part 1 1842 p.61 #1
S: http://imslp.org/wiki/The_Musician's_Companion_(Howe,_Elias)
Z: 2015 John Chambers <jc:trillian.mit.edu>
M: 2/4
L: 1/16
K: Bb
% - - - - - - - - - - - - - - - - - - - - - - - - -
F2 |\
FBBc Bdfg | fd(bg) (gf)df | gfdB cBGA | BcBG GFFF |\
GABc Bdfg | fd(bg) (gf)df | gfbg gfdf | (ge)cA B2 :|
|: (3(FGA) |\
B2df bagf | dfba gfed | e2ed c2cB | AcBG FDED |\
B,DFB Bdcd | Bdfe gecA | Bdfb gecA | B2B2B2 :|
% - - - - - - - - - - - - - - - - - - - - - - - - -


